lib/flags/l/GUM.svg

<svg xmlns="http://www.w3.org/2000/svg" fill="none" viewBox="0 0 32 24"><mask id="GUM_svg__a" width="32" height="24" x="0" y="0" mask-type="alpha" maskUnits="userSpaceOnUse"><path fill="#fff" d="M0 0H32V24H0z"/></mask><g mask="url(#GUM_svg__a)"><path fill="#C51918" fill-rule="evenodd" d="M0 0H32V24H0V0Z" clip-rule="evenodd"/><path fill="#4564F9" fill-rule="evenodd" d="M4 4H28V20H4V4Z" clip-rule="evenodd"/><path stroke="#CBDAFF" stroke-opacity=".1" stroke-width="2" d="M5 5H27V19H5V5Z"/><mask id="GUM_svg__b" width="24" height="16" x="4" y="4" mask-type="alpha" maskUnits="userSpaceOnUse"><path fill="#fff" fill-rule="evenodd" d="M4 4H28V20H4V4Z" clip-rule="evenodd"/><path stroke="#fff" stroke-width="2" d="M5 5H27V19H5V5Z"/></mask><g mask="url(#GUM_svg__b)"><path stroke="#C1C9F1" stroke-opacity=".118" stroke-width="2.9" d="M16.5 5L17.1067 3.68301L16.4859 3.39704L15.8702 3.69393L16.5 5ZM16.5 5C17.1067 3.68301 17.1071 3.68321 17.1075 3.68342L17.1086 3.68388L17.1109 3.68499L17.1172 3.68792L17.1358 3.69664C17.1508 3.70372 17.1709 3.71333 17.1958 3.72546C17.2457 3.7497 17.3149 3.78402 17.4007 3.82825C17.5721 3.91659 17.8109 4.04505 18.0948 4.21215C18.6595 4.54445 19.4188 5.03909 20.1854 5.68626C21.6653 6.93567 23.45 8.9931 23.45 11.753C23.45 14.4844 21.6952 16.659 20.2398 18.0184C19.4831 18.7252 18.7325 19.2817 18.1734 19.661C17.8924 19.8516 17.6563 19.9998 17.4871 20.1021C17.4025 20.1534 17.3344 20.1933 17.2855 20.2214C17.2611 20.2355 17.2415 20.2466 17.227 20.2548L17.2091 20.2648L17.2032 20.2681L17.201 20.2693L17.2 20.2698C17.1996 20.27 17.1992 20.2703 16.5 19M16.5 5C15.8702 3.69393 15.8698 3.69412 15.8693 3.69433L15.8684 3.69479L15.8661 3.69591L15.8599 3.69889L15.8418 3.70784C15.827 3.71511 15.8071 3.72503 15.7825 3.73755C15.7331 3.76257 15.6644 3.79805 15.5792 3.8437C15.4089 3.93489 15.1713 4.06729 14.8887 4.23868C14.3266 4.57957 13.5707 5.08422 12.8077 5.73663C11.3432 6.98884 9.55 9.04671 9.55 11.753C9.55 14.43 11.3123 16.6059 12.7542 17.9683C13.5078 18.6803 14.2553 19.2466 14.8121 19.6343C15.0918 19.8291 15.3268 19.9811 15.4949 20.0862C15.5791 20.1388 15.6467 20.1799 15.6951 20.2087C15.7193 20.2232 15.7387 20.2346 15.7529 20.2429L15.7704 20.2531L15.7762 20.2565L15.7784 20.2577L15.7793 20.2582C15.7797 20.2584 15.78 20.2586 16.5 19M16.5 19L17.1992 20.2703L16.4864 20.6627L15.78 20.2586L16.5 19Z"/><path fill="#CCE0E5" d="M16.4 6.03674L17.0865 4.75956L16.384 4.38195L15.689 4.77306L16.4 6.03674ZM16.4 6.03674C17.0865 4.75956 17.087 4.7598 17.0875 4.76005L17.0885 4.76059L17.0908 4.76183L17.0964 4.76492L17.1122 4.77356C17.1246 4.78041 17.1408 4.78943 17.1605 4.80061C17.1999 4.82296 17.2535 4.854 17.3193 4.89356C17.4506 4.97258 17.6317 5.08625 17.8459 5.23335C18.2717 5.52577 18.8422 5.95956 19.4176 6.52642C20.5414 7.63348 21.85 9.41696 21.85 11.7676C21.85 14.0944 20.5638 15.9719 19.4685 17.1657C18.904 17.7809 18.3437 18.2658 17.9249 18.5972C17.7145 18.7638 17.5368 18.894 17.4084 18.9847C17.3441 19.0301 17.2919 19.0658 17.2538 19.0914C17.2348 19.1042 17.2193 19.1145 17.2075 19.1222L17.1927 19.1319L17.1874 19.1353L17.1854 19.1366L17.1845 19.1372C17.1841 19.1374 17.1837 19.1377 16.4 17.9177M16.4 6.03674C15.689 4.77306 15.6885 4.7733 15.6881 4.77355L15.6871 4.77409L15.685 4.77533L15.6795 4.77844L15.6641 4.78723C15.652 4.79422 15.6361 4.80347 15.6167 4.81496C15.5779 4.83792 15.5249 4.86987 15.4598 4.91057C15.3297 4.99185 15.1501 5.10869 14.9374 5.25921C14.5146 5.55846 13.9477 6.00016 13.3759 6.57066C12.2659 7.67809 10.95 9.46135 10.95 11.7676C10.95 14.0492 12.2426 15.9273 13.326 17.1218C13.8873 17.7407 14.4445 18.2334 14.8607 18.5715C15.0698 18.7414 15.2462 18.8746 15.3735 18.9675C15.4372 19.014 15.4888 19.0505 15.5264 19.0767C15.5452 19.0898 15.5604 19.1003 15.5719 19.1081L15.5864 19.1179L15.5914 19.1213L15.5934 19.1226L15.5943 19.1232C15.5946 19.1235 15.595 19.1237 16.4 17.9177M16.4 17.9177L17.1837 19.1377L16.3848 19.6509L15.595 19.1237L16.4 17.9177Z"/><path stroke="#C1C9F1" stroke-opacity=".748" stroke-width="2.9" d="M16.4 6.03674L17.0865 4.75956L16.384 4.38195L15.689 4.77306L16.4 6.03674ZM16.4 6.03674C17.0865 4.75956 17.087 4.7598 17.0875 4.76005L17.0885 4.76059L17.0908 4.76183L17.0964 4.76492L17.1122 4.77356C17.1246 4.78041 17.1408 4.78943 17.1605 4.80061C17.1999 4.82296 17.2535 4.854 17.3193 4.89356C17.4506 4.97258 17.6317 5.08625 17.8459 5.23335C18.2717 5.52577 18.8422 5.95956 19.4176 6.52642C20.5414 7.63348 21.85 9.41696 21.85 11.7676C21.85 14.0944 20.5638 15.9719 19.4685 17.1657C18.904 17.7809 18.3437 18.2658 17.9249 18.5972C17.7145 18.7638 17.5368 18.894 17.4084 18.9847C17.3441 19.0301 17.2919 19.0658 17.2538 19.0914C17.2348 19.1042 17.2193 19.1145 17.2075 19.1222L17.1927 19.1319L17.1874 19.1353L17.1854 19.1366L17.1845 19.1372C17.1841 19.1374 17.1837 19.1377 16.4 17.9177M16.4 6.03674C15.689 4.77306 15.6885 4.7733 15.6881 4.77355L15.6871 4.77409L15.685 4.77533L15.6795 4.77844L15.6641 4.78723C15.652 4.79422 15.6361 4.80347 15.6167 4.81496C15.5779 4.83792 15.5249 4.86987 15.4598 4.91057C15.3297 4.99185 15.1501 5.10869 14.9374 5.25921C14.5146 5.55846 13.9477 6.00016 13.3759 6.57066C12.2659 7.67809 10.95 9.46135 10.95 11.7676C10.95 14.0492 12.2426 15.9273 13.326 17.1218C13.8873 17.7407 14.4445 18.2334 14.8607 18.5715C15.0698 18.7414 15.2462 18.8746 15.3735 18.9675C15.4372 19.014 15.4888 19.0505 15.5264 19.0767C15.5452 19.0898 15.5604 19.1003 15.5719 19.1081L15.5864 19.1179L15.5914 19.1213L15.5934 19.1226L15.5943 19.1232C15.5946 19.1235 15.595 19.1237 16.4 17.9177M16.4 17.9177L17.1837 19.1377L16.3848 19.6509L15.595 19.1237L16.4 17.9177Z"/><path stroke="#C51918" stroke-width="2.9" d="M16.4 6.03674L17.0865 4.75956L16.384 4.38195L15.689 4.77306L16.4 6.03674ZM16.4 6.03674C17.0865 4.75956 17.087 4.7598 17.0875 4.76005L17.0885 4.76059L17.0908 4.76183L17.0964 4.76492L17.1122 4.77356C17.1246 4.78041 17.1408 4.78943 17.1605 4.80061C17.1999 4.82296 17.2535 4.854 17.3193 4.89356C17.4506 4.97258 17.6317 5.08625 17.8459 5.23335C18.2717 5.52577 18.8422 5.95956 19.4176 6.52642C20.5414 7.63348 21.85 9.41696 21.85 11.7676C21.85 14.0944 20.5638 15.9719 19.4685 17.1657C18.904 17.7809 18.3437 18.2658 17.9249 18.5972C17.7145 18.7638 17.5368 18.894 17.4084 18.9847C17.3441 19.0301 17.2919 19.0658 17.2538 19.0914C17.2348 19.1042 17.2193 19.1145 17.2075 19.1222L17.1927 19.1319L17.1874 19.1353L17.1854 19.1366L17.1845 19.1372C17.1841 19.1374 17.1837 19.1377 16.4 17.9177M16.4 6.03674C15.689 4.77306 15.6885 4.7733 15.6881 4.77355L15.6871 4.77409L15.685 4.77533L15.6795 4.77844L15.6641 4.78723C15.652 4.79422 15.6361 4.80347 15.6167 4.81496C15.5779 4.83792 15.5249 4.86987 15.4598 4.91057C15.3297 4.99185 15.1501 5.10869 14.9374 5.25921C14.5146 5.55846 13.9477 6.00016 13.3759 6.57066C12.2659 7.67809 10.95 9.46135 10.95 11.7676C10.95 14.0492 12.2426 15.9273 13.326 17.1218C13.8873 17.7407 14.4445 18.2334 14.8607 18.5715C15.0698 18.7414 15.2462 18.8746 15.3735 18.9675C15.4372 19.014 15.4888 19.0505 15.5264 19.0767C15.5452 19.0898 15.5604 19.1003 15.5719 19.1081L15.5864 19.1179L15.5914 19.1213L15.5934 19.1226L15.5943 19.1232C15.5946 19.1235 15.595 19.1237 16.4 17.9177M16.4 17.9177L17.1837 19.1377L16.3848 19.6509L15.595 19.1237L16.4 17.9177Z"/><mask id="GUM_svg__c" width="9" height="12" x="12" y="6" mask-type="alpha" maskUnits="userSpaceOnUse"><path fill="#fff" d="M17.3316 15.2051C17.0125 15.5529 16.6913 15.8505 16.412 16.0879C16.128 15.8416 15.7999 15.5327 15.474 15.1735C14.5575 14.163 13.85 12.9661 13.85 11.7676C13.85 10.5938 14.5341 9.51159 15.4241 8.62362C15.77 8.2786 16.119 7.99143 16.4129 7.77175C16.7019 7.98274 17.0437 8.25867 17.3824 8.59235C18.2587 9.45553 18.95 10.5375 18.95 11.7676C18.95 13.0215 18.2362 14.2191 17.3316 15.2051ZM15.7094 7.31171C15.709 7.31147 15.7094 7.31173 15.7108 7.31248L15.7108 7.31244L15.7094 7.31171Z"/><path stroke="#fff" stroke-width="2.9" d="M17.3316 15.2051C17.0125 15.5529 16.6913 15.8505 16.412 16.0879C16.128 15.8416 15.7999 15.5327 15.474 15.1735C14.5575 14.163 13.85 12.9661 13.85 11.7676C13.85 10.5938 14.5341 9.51159 15.4241 8.62362C15.77 8.2786 16.119 7.99143 16.4129 7.77175C16.7019 7.98274 17.0437 8.25867 17.3824 8.59235C18.2587 9.45553 18.95 10.5375 18.95 11.7676C18.95 13.0215 18.2362 14.2191 17.3316 15.2051ZM15.7094 7.31171C15.709 7.31147 15.7094 7.31173 15.7108 7.31248L15.7108 7.31244L15.7094 7.31171Z"/></mask><g mask="url(#GUM_svg__c)"><path fill="#91CBCB" d="M12.933 14H20.4V15.5H12.933z"/><path fill="#FDF9A1" fill-rule="evenodd" d="M13.6018 15.1979C13.6018 15.1979 18.8959 15.1998 19.3824 15.0171C19.869 14.8344 18.469 18.5246 16.6801 18.5246C14.8913 18.5246 13.6018 15.1979 13.6018 15.1979Z" clip-rule="evenodd"/><path fill="#A68861" d="M18.5936 14.7551L17.6426 15.4869C16.1437 13.539 15.515 11.524 15.7833 9.46741L16.9732 9.62268C16.7485 11.3452 17.2796 13.0474 18.5936 14.7551Z"/><path fill="#239E46" fill-rule="evenodd" d="M16.3937 9.63664 15.4864 10.6998C15.4523 10.7397 15.3876 10.7069 15.3997 10.6559L15.7118 9.3303H14.2924C14.2383 9.3303 14.2228 9.25625 14.2724 9.23451L15.4852 8.70281 14.6243 7.56792C14.5939 7.52772 14.6353 7.4728 14.6823 7.49112L16.036 8.01881 16.345 6.77538C16.3576 6.72476 16.4296 6.7248 16.4421 6.77544L16.7495 8.01881 18.0914 7.49633C18.1394 7.47765 18.1809 7.53497 18.1482 7.57472L17.2185 8.70281 18.5013 9.23411C18.5518 9.25504 18.5368 9.3303 18.4821 9.3303H17.2185L17.4108 10.6865C17.4179 10.736 17.3558 10.764 17.3233 10.7259L16.3937 9.63664zM15.6 13H20.4V14.05H15.6V13z" clip-rule="evenodd"/><path fill="#C51918" fill-rule="evenodd" d="M14.872 12.3925H14.8672C14.8533 12.444 14.8194 12.4868 14.7656 12.5209C14.7117 12.555 14.6421 12.5721 14.5568 12.5721C14.4885 12.5721 14.4258 12.5597 14.3688 12.5351C14.3117 12.5104 14.2629 12.4742 14.2224 12.4264C14.1818 12.3786 14.1501 12.3193 14.1272 12.2484C14.1042 12.1775 14.0928 12.0959 14.0928 12.0035C14.0928 11.9122 14.104 11.831 14.1264 11.7602C14.1488 11.6893 14.1808 11.63 14.2224 11.5822C14.264 11.5344 14.3141 11.4979 14.3728 11.4727C14.4314 11.4475 14.4965 11.4349 14.568 11.4349C14.6682 11.4349 14.752 11.457 14.8192 11.5011C14.8864 11.5452 14.9381 11.6035 14.9744 11.6759L14.864 11.7421C14.8384 11.6833 14.8002 11.6371 14.7496 11.6035C14.6989 11.5699 14.6384 11.5531 14.568 11.5531C14.5189 11.5531 14.4741 11.5617 14.4336 11.579C14.393 11.5964 14.3581 11.6208 14.3288 11.6523C14.2994 11.6838 14.2768 11.7216 14.2608 11.7657C14.2448 11.8098 14.2368 11.8591 14.2368 11.9137V12.0917C14.2368 12.1463 14.2448 12.1959 14.2608 12.2405C14.2768 12.2852 14.2994 12.3232 14.3288 12.3547C14.3581 12.3862 14.3941 12.4106 14.4368 12.428C14.4794 12.4453 14.5274 12.454 14.5808 12.454C14.6192 12.454 14.6557 12.449 14.6904 12.439C14.725 12.429 14.7554 12.4141 14.7816 12.3941C14.8077 12.3742 14.8282 12.3492 14.8432 12.3193C14.8581 12.2894 14.8656 12.2539 14.8656 12.213V12.1043H14.6192V11.9878H14.9968V12.5532H14.872V12.3925ZM15.7072 11.4538V12.1342C15.7072 12.2392 15.7269 12.3188 15.7664 12.3728C15.8058 12.4269 15.8752 12.454 15.9744 12.454C16.0736 12.454 16.1429 12.4269 16.1824 12.3728C16.2218 12.3188 16.2416 12.2392 16.2416 12.1342V11.4538H16.376V12.1027C16.376 12.1825 16.3688 12.2518 16.3544 12.3106C16.34 12.3694 16.3168 12.4183 16.2848 12.4571C16.2528 12.496 16.2109 12.5248 16.1592 12.5437C16.1074 12.5626 16.0442 12.5721 15.9696 12.5721C15.8949 12.5721 15.8322 12.5626 15.7816 12.5437C15.7309 12.5248 15.6901 12.496 15.6592 12.4571C15.6282 12.4183 15.6061 12.3694 15.5928 12.3106C15.5794 12.2518 15.5728 12.1825 15.5728 12.1027V11.4538H15.7072ZM17.664 12.5532L17.552 12.2287H17.1008L16.9888 12.5532H16.8528L17.2432 11.4538H17.4144L17.8048 12.5532H17.664ZM17.3296 11.5767H17.3216L17.1328 12.1122H17.5184L17.3296 11.5767ZM19.1808 11.6271H19.1728L19.0784 11.8114L18.8112 12.2902L18.544 11.8114L18.4496 11.6271H18.4416V12.5532H18.3104V11.4538H18.4896L18.8096 12.046H18.8176L19.1392 11.4538H19.312V12.5532H19.1808V11.6271Z" clip-rule="evenodd"/></g></g></g></svg>

<svg xmlns="http://www.w3.org/2000/svg" fill="none" viewBox="0 0 32 24"><mask id="GUM_svg__a" width="32" height="24" x="0" y="0" maskUnits="userSpaceOnUse"><path fill="#fff" d="M0 0h32v24H0z"/></mask><g mask="url(#GUM_svg__a)"><path fill="#C51918" fill-rule="evenodd" d="M0 0h32v24H0V0z" clip-rule="evenodd"/><path fill="#4564F9" fill-rule="evenodd" d="M4 4h24v16H4V4z" clip-rule="evenodd"/><path stroke="#CBDAFF" stroke-opacity=".1" stroke-width="2" d="M5 5h22v14H5V5z"/><mask id="GUM_svg__b" width="24" height="16" x="4" y="4" maskUnits="userSpaceOnUse"><path fill="#fff" fill-rule="evenodd" d="M4 4h24v16H4V4z" clip-rule="evenodd"/><path stroke="#fff" stroke-width="2" d="M5 5h22v14H5V5z"/></mask><g mask="url(#GUM_svg__b)"><path stroke="#C1C9F1" stroke-opacity=".118" stroke-width="2.9" d="M16.5 5l.607-1.317-.621-.286-.616.297L16.5 5zm0 0a227.2 227.2 0 01.608-1.317h0l.003.002.006.003.019.009a5.631 5.631 0 01.265.131 15.34 15.34 0 012.785 1.858c1.48 1.25 3.264 3.307 3.264 6.067 0 2.731-1.755 4.906-3.21 6.265a17.243 17.243 0 01-3.013 2.237l-.018.01-.006.003-.002.001H17.2L16.5 19m0-14l-.63-1.306h-.002l-.002.002-.006.003-.018.009a14.971 14.971 0 00-.953.53c-.562.342-1.318.846-2.081 1.499-1.465 1.252-3.258 3.31-3.258 6.016 0 2.677 1.762 4.853 3.204 6.215a18.063 18.063 0 002.941 2.24l.058.035.017.01.006.003.002.002h.001L16.5 19m0 0l.7 1.27-.714.393-.706-.404L16.5 19z"/><path fill="#CCE0E5" d="M16.4 6.037l.687-1.277-.703-.378-.695.391.711 1.264zm0 0l.688-1.277.003.002.005.003.016.009a4.562 4.562 0 01.207.12 11.7 11.7 0 012.098 1.633c1.124 1.107 2.433 2.89 2.433 5.24 0 2.328-1.286 4.205-2.382 5.399a13.435 13.435 0 01-2.06 1.819 8.178 8.178 0 01-.2.137l-.015.01-.006.003-.002.002-.785-1.22m0-11.88a206.334 206.334 0 00-.712-1.263l-.003.001-.005.003-.016.01a4.974 4.974 0 00-.204.123 12.27 12.27 0 00-2.084 1.66c-1.11 1.107-2.426 2.89-2.426 5.197 0 2.281 1.293 4.16 2.376 5.354a14.076 14.076 0 002.2 1.955l.046.031.014.01.005.003.002.002h.001l.806-1.205m0 0l.784 1.22-.8.513-.789-.527.805-1.206z"/><path stroke="#C1C9F1" stroke-opacity=".748" stroke-width="2.9" d="M16.4 6.037l.687-1.277-.703-.378-.695.391.711 1.264zm0 0l.688-1.277h0l.003.002.005.003.016.009a4.562 4.562 0 01.207.12 11.7 11.7 0 012.098 1.633c1.124 1.107 2.433 2.89 2.433 5.24 0 2.328-1.286 4.205-2.382 5.399a13.435 13.435 0 01-2.06 1.819 8.178 8.178 0 01-.2.137l-.015.01-.006.003-.002.002h0l-.785-1.22m0-11.88a206.334 206.334 0 00-.712-1.263h0l-.003.001-.005.003-.016.01a4.974 4.974 0 00-.204.123 12.27 12.27 0 00-2.084 1.66c-1.11 1.107-2.426 2.89-2.426 5.197 0 2.281 1.293 4.16 2.376 5.354a14.076 14.076 0 002.2 1.955l.046.031.014.01.005.003.002.002h.001l.806-1.205m0 0l.784 1.22-.8.513-.789-.527.805-1.206z"/><path stroke="#C51918" stroke-width="2.9" d="M16.4 6.037l.687-1.277-.703-.378-.695.391.711 1.264zm0 0l.688-1.277h0l.003.002.005.003.016.009a4.562 4.562 0 01.207.12 11.7 11.7 0 012.098 1.633c1.124 1.107 2.433 2.89 2.433 5.24 0 2.328-1.286 4.205-2.382 5.399a13.435 13.435 0 01-2.06 1.819 8.178 8.178 0 01-.2.137l-.015.01-.006.003-.002.002h0l-.785-1.22m0-11.88a206.334 206.334 0 00-.712-1.263h0l-.003.001-.005.003-.016.01a4.974 4.974 0 00-.204.123 12.27 12.27 0 00-2.084 1.66c-1.11 1.107-2.426 2.89-2.426 5.197 0 2.281 1.293 4.16 2.376 5.354a14.076 14.076 0 002.2 1.955l.046.031.014.01.005.003.002.002h.001l.806-1.205m0 0l.784 1.22-.8.513-.789-.527.805-1.206z"/><mask id="GUM_svg__c" width="9" height="12" x="12" y="6" maskUnits="userSpaceOnUse"><path fill="#fff" d="M17.332 15.205c-.32.348-.64.646-.92.883a11.05 11.05 0 01-.938-.914c-.917-1.011-1.624-2.208-1.624-3.406 0-1.174.684-2.256 1.574-3.144a9.27 9.27 0 01.989-.852c.289.21.63.487.97.82.876.864 1.567 1.945 1.567 3.176 0 1.254-.714 2.451-1.618 3.437zm-1.623-7.893h.002-.002z"/><path stroke="#fff" stroke-width="2.9" d="M17.332 15.205c-.32.348-.64.646-.92.883a11.05 11.05 0 01-.938-.914c-.917-1.011-1.624-2.208-1.624-3.406 0-1.174.684-2.256 1.574-3.144a9.27 9.27 0 01.989-.852c.289.21.63.487.97.82.876.864 1.567 1.945 1.567 3.176 0 1.254-.714 2.451-1.618 3.437zm-1.623-7.893h.002-.002z"/></mask><g mask="url(#GUM_svg__c)"><path fill="#91CBCB" d="M12.933 14H20.4v1.5h-7.467z"/><path fill="#FDF9A1" fill-rule="evenodd" d="M13.602 15.198s5.294.002 5.78-.18c.487-.184-.913 3.507-2.702 3.507s-3.078-3.327-3.078-3.327z" clip-rule="evenodd"/><path fill="#A68861" d="M18.594 14.755l-.951.732c-1.5-1.948-2.128-3.963-1.86-6.02l1.19.156c-.224 1.722.307 3.425 1.62 5.132z"/><path fill="#239E46" fill-rule="evenodd" d="M16.394 9.637l-.908 1.063c-.034.04-.098.007-.086-.044l.312-1.326h-1.42c-.054 0-.07-.074-.02-.095l1.213-.532-.86-1.135c-.031-.04.01-.095.057-.077l1.354.528.309-1.244c.013-.05.085-.05.097 0l.308 1.244 1.341-.523c.048-.018.09.04.057.079l-.93 1.128 1.283.531c.05.021.036.096-.019.096h-1.264l.193 1.357c.007.05-.055.077-.088.039l-.93-1.09zM15.6 13h4.8v1.05h-4.8V13z" clip-rule="evenodd"/><path fill="#C51918" fill-rule="evenodd" d="M14.872 12.393h-.005a.22.22 0 01-.101.128.385.385 0 01-.21.051.468.468 0 01-.187-.037.395.395 0 01-.147-.108.516.516 0 01-.095-.178.794.794 0 01-.034-.245c0-.092.011-.173.033-.244a.493.493 0 01.096-.178.412.412 0 01.15-.11.49.49 0 01.196-.037c.1 0 .184.022.251.066a.442.442 0 01.155.175l-.11.066a.311.311 0 00-.114-.139.321.321 0 00-.182-.05.339.339 0 00-.134.026.304.304 0 00-.173.187.432.432 0 00-.024.148v.178c0 .054.008.104.024.149a.298.298 0 00.176.187.397.397 0 00.254.011.276.276 0 00.09-.045.213.213 0 00.085-.181v-.109h-.247v-.116h.378v.565h-.125v-.16zm.835-.94v.681a.4.4 0 00.06.239c.039.054.108.081.207.081.1 0 .169-.027.208-.081a.403.403 0 00.06-.239v-.68h.134v.649a.85.85 0 01-.022.208.363.363 0 01-.07.146.286.286 0 01-.125.087.556.556 0 01-.19.028.541.541 0 01-.187-.028.276.276 0 01-.123-.087.358.358 0 01-.066-.146.946.946 0 01-.02-.208v-.65h.134zm1.957 1.1l-.112-.324h-.451l-.112.324h-.136l.39-1.1h.171l.39 1.1h-.14zm-.334-.976h-.008l-.19.535h.386l-.188-.535zm1.85.05h-.007l-.095.184-.267.48-.267-.48-.094-.184h-.008v.926h-.132v-1.1h.18l.32.593h.008l.321-.592h.173v1.1h-.131v-.927z" clip-rule="evenodd"/></g></g></g></svg>
